X: 3608
T: The Gilly Flower
P: Opera Dance
C:Wm. Nisbet
B:RSCDS 36-8
Z:Anselm Lingnau <anselm@strathspey.org>
R:Jig (8x32)
M:6/8
L:1/8
K:D
(3A,B,C|"D"D2 D F2 A|d2 D DEF|"Em"EFD "A"CB,A,|"Em"EFD "A"CB,A,|\
  "D"D2 D F2 A|d2 D DEF|"Em"B,GF "A"EDC|
                                        "D"D3 D2||\
F/G/|"D"AFA "G"BAB|"A7"GFG "D"AGA|"Em"EB,E GFE|"E7"EFD "A"CB,A,|\
     "D"AFA "G"BAB|"Em"GFG "D"AFD|
                                  "Em"B,GF "A"EDC|"D"D3 D2||\
(3A/B/c/|"D"d2 d "F#m"f2 a|"Bm"d'2 d "D"def|"Em"efd "A"cBA|"E7"efd "A"cBA|\
         "D"d2 d "F#m"f2 a|
                           "Bm"d'2 d "D"def|"Em"egf "A7"edc|"D"d3 d2||\
f/g/|"D"a^ga "B7"bab|"Em"gfg "D"a^ga|"Em"eBe gfg|
                                                 "E7"efd "A7"cBA|\
     "D"a^ga "B7"bab|"Em"gfg "D"afd|"Em"Bgf "A7"edc|"D"d3 d2|]
%%center Book36/3608-Gilly_Flower-AL.abc

%%newpage
%%center OTHER TRANSCRIPTIONS
%%sep 3 1 500
%%sep 1 1 500

%%sep 2 1 500
%%sep 1 1 500

